X: 1211
T: The Earl of Home
P: The Earl of Home
C:Nathaniel Gow
R:Strathspey (8x32)
B:RSCDS 12-11
Z:Anselm Lingnau <anselm@strathspey.org>
M:4/4
L:1/8
K:D
d|"D"A>D A>F "G"B>E G<B|"D"A>D A>F "G"B>G "D"A>F|\
  "Em"G>B "D"F>A "Em"E>F G<B|"D"A>D A>F A>D F d|
  "D"A>D A>F "G"B>E G<B|"D"A>D A>F "G"B>G "D"A>F|\
  "Em"G>B "D"F>A "Em"E>F G<B|"D"A>D A>F A>D F||
A|"D"d>e f>d "A"c>d e>f|"Bm"d>e f>d "A"e>c "Bm"d>B|\
  "D"A>F d>F "E7"E>F G>B|"D"A>D "A"A>F "D"A<D F>A|
  "Bm"d/c/d/e/ f>d "Em"c>d e>f|"Bm"d>e f>d "A7"e>c "Bm"d>B|\
  "D"A<F d>F "E"E>F G<B|"D"A>F A>B "Bm"d>A B/d/|]
%%center Book12/1211-Earl_of_Home-AL.abc

%%sep 1 1 500
%%sep 1 1 500

